flaticon/constructions/allen.svg

<svg xmlns="http://www.w3.org/2000/svg" width="32" height="32" viewBox="0 0 24 24">
    <path d="M 12.800781 0 L 6.800781 0 C 6.558594 0 6.398438 0.160156 6.398438 0.398438 L 6.398438 3.601562 C 6.398438 3.839844 6.558594 4 6.800781 4 L 12.800781 4 C 13.238281 4 13.601562 4.359375 13.601562 4.800781 L 13.601562 23.601562 C 13.601562 23.839844 13.761719 24 14 24 L 17.199219 24 C 17.441406 24 17.601562 23.839844 17.601562 23.601562 L 17.601562 4.800781 C 17.601562 2.160156 15.441406 0 12.800781 0 Z M 12.800781 3.199219 L 7.199219 3.199219 L 7.199219 2.398438 L 12.800781 2.398438 C 14.121094 2.398438 15.199219 3.480469 15.199219 4.800781 L 15.199219 23.199219 L 14.398438 23.199219 L 14.398438 4.800781 C 14.398438 3.921875 13.679688 3.199219 12.800781 3.199219 Z M 16.800781 23.199219 L 16 23.199219 L 16 4.800781 C 16 3.039062 14.558594 1.601562 12.800781 1.601562 L 7.199219 1.601562 L 7.199219 0.800781 L 12.800781 0.800781 C 15 0.800781 16.800781 2.601562 16.800781 4.800781 Z M 16.800781 23.199219"/>
</svg>

<svg xmlns="http://www.w3.org/2000/svg" width="32" height="32" viewBox="0 0 24 24">
    <path d="M12.8 0h-6c-.241 0-.402.16-.402.398v3.204c0 .238.16.398.403.398h6c.437 0 .8.36.8.8v18.802c0 .238.16.398.399.398h3.2c.241 0 .402-.16.402-.398V4.8C17.602 2.16 15.442 0 12.8 0zm0 3.2H7.2v-.802h5.6a2.407 2.407 0 0 1 2.4 2.403v18.398h-.802V4.801c0-.88-.718-1.602-1.597-1.602zm4 20H16V4.8c0-1.76-1.441-3.198-3.2-3.198H7.2V.8h5.6c2.2 0 4 1.8 4 4zm0 0"/>
</svg>
